X:1
T:Ahime qual' empia
T:Luca Marenzio
T:Source : Il quinto libro delle Villanelle a tre voci---Venetia---Herede di G.Scotto---1587.7 Editor : André Vierendeels (07/05/17).
T:Notes : Original clefs : C1, C2, F4 Editorial accidentals above the staff Music collected by Attilio Gualtieri  
T:Ahime qual' empia
T:©
T:©
C:Luca Marenzio
Z:©
%%score [ 1 2 3 ]
L:1/8
Q:1/4=120
M:4/4
K:F
V:1 treble nm="Soprano 1" snm="S 1"
V:2 treble nm="Soprano 2" snm="S 2"
V:3 bass nm="Bass" snm="B"
V:1
"^1)" B8 | A8 | B2 c4 d2 | _e4 d4 | z2 d3 c B2- | B2 _e4 d2 | c8 | B8 :: c2 c2 c4- | c4 B2 G2 | %10
w: Ahi-|me|qual' em- pia|sor- te,|mi mi- nac-|* cia la|mor-|te,|che mor- ro|_ o mia|
w: Piu|mi|do- le'il par-|ti- re,|che non fa-|* rà'il mo-|ri-|re,|ch'è piu mor-|* to che|
 A4 A4 | B3 B c2 Bc |"^b" d2 fe dcBA |"^b" G2 e3 d cB | A2 G2 A4 | G8 :| %16
w: vi- ta,|e mio ben se da|me fa- * * * * *|* te _ _ _|_ par- ti-|ta.|
w: vi- vo,|chi di chi'a- ma'et a-|do- ra _ _ _ _ _|_ re- * * *|* sta pri-|vo.|
V:2
"^2)""^1)" z4 G4- | G4 ^F4 | G2 A4 =B2 | c4 F4 | z2 B3 A G2- | G2 G2 B4 | A2 B4 A2 | B8 :: %8
w: Ahi-|* me|qual' em- pia|sor- te,|mi mi- nac-|* cia la|mor- * *|te,|
w: Ne|_ po-|trà la mia|sal- ma,|con lei ri-|* te- ner|l'al- * *|ma,|
 A2 A2 A4- | A4 G2 G2 | ^F4 F4 | G3 G E2 GF | F8 |"^b" E2 c3 B AG | ^F2 G4 F2 | G8 :| %16
w: che mo- ro|_ o mia|vi- ta,|e mio ben se da|me|fa- te _ _ _|par- ti- *|ta.|
w: che fia se-|* gno d'a-|mo- re,|se con voi vis- s'e|con|voi la _ _ _|si mo- *|re.|
V:3
"^3)""^1)""^4)" G,,8 | D,8 |"^-natural" G,2 F,4 D,2 | C,4 B,,4 | B,3 A, G,4 | _E,4 B,,4 | F,8 | %7
w: Ahi-|me|qual' em- pia|sor- te,|mi mi- nac-|cia la|mor-|
w: E|fe-|li- ce mo-|ren- do,|con voi dir|à gio-|ien-|
 B,,8 :: F,2 F,2 F,4- | F,4 G,2 _E,2 | D,4 D,4 | G,3 G, A,2 G,A, | B,4 B,,4 | C,4 C,4 | D,8 | %15
w: te,|che mo- ro|_ o mia|vi- ta,|e mio ben se da|me fa-|te par-|ti-|
w: do,|non puo dol-|* ce mia|vi- ta,|di voi pri- var- mi'al-|cu- na|di- par-|ti-|
 G,,8 :| %16
w: ta.|
w: ta.|

